X: 19
T: Kick the World Before You
S: Fitzmaurice Collection
N: 112210
Z: BB
L: 1/8
M: 9/8
R: slip jig
Q: 1/4=180
K: D
=c3 BdB c2A|A2d ded =cBA|=c3 BdB c2A|BAG =cBA GE=C :|
F2d dFD AFD|F2d dFD GE=C|F2d dFD AFD|E=CE =cBA GE=C :|
f2d dfa g2e|f2d dfa ge=c|f2d d2B =c2A|B2G =cBA GE=C :|
dFF AFF AFF|dFF AFF GE=C|dFF AFF AFF|EFE =cBA GE=C :|
E/F/GE F2D F2D|E/F/GE F2D GE=C|E/F/GE F2D AGF|\
EFE =cBA GE=C :|
%%%%%
